icons/joints.svg

<svg width="48" height="48" viewBox="0 0 48 48" fill="none" xmlns="http://www.w3.org/2000/svg">
<path fill-rule="evenodd" clip-rule="evenodd" d="M20 4C20.5523 4 21 4.44772 21 5V13.3431C21 14.6692 20.4732 15.941 19.5355 16.8787L19.0317 17.3826C18.1384 18.2758 18.1384 19.7242 19.0317 20.6174C19.7279 21.3136 20.7914 21.4862 21.6721 21.0459L21.9145 20.9247C23.2273 20.2683 24.7727 20.2683 26.0855 20.9247L26.3279 21.0459C27.2086 21.4862 28.2721 21.3136 28.9683 20.6174C29.8616 19.7242 29.8616 18.2758 28.9683 17.3826L28.4645 16.8787C27.5268 15.941 27 14.6692 27 13.3431V5C27 4.44772 27.4477 4 28 4C28.5523 4 29 4.44772 29 5V6.70355C36.5086 8.87023 42 15.7938 42 24C42 32.2062 36.5086 39.1298 29 41.2965V43C29 43.5523 28.5523 44 28 44C27.4477 44 27 43.5523 27 43V34.6569C27 33.3308 27.5268 32.059 28.4645 31.1213L28.9683 30.6174C29.8616 29.7242 29.8616 28.2758 28.9683 27.3826C28.2721 26.6864 27.2086 26.5138 26.3279 26.9541L26.0855 27.0753C24.7727 27.7317 23.2273 27.7317 21.9145 27.0753L21.6721 26.9541C20.7914 26.5138 19.7279 26.6864 19.0317 27.3826C18.1384 28.2758 18.1384 29.7242 19.0317 30.6174L19.5355 31.1213C20.4732 32.059 21 33.3308 21 34.6569V43C21 43.5523 20.5523 44 20 44C19.4477 44 19 43.5523 19 43V41.2965C11.4914 39.1298 6 32.2062 6 24C6 15.7938 11.4914 8.87023 19 6.70355V5C19 4.44772 19.4477 4 20 4ZM19 8.79677C12.6121 10.8964 8 16.9096 8 24C8 31.0905 12.6121 37.1037 19 39.2033V34.6569C19 33.8612 18.6839 33.0981 18.1213 32.5355L17.6174 32.0317C15.9431 30.3573 15.9431 27.6427 17.6174 25.9683C18.9224 24.6634 20.9159 24.3399 22.5665 25.1652L22.8089 25.2864C23.5587 25.6613 24.4413 25.6613 25.1911 25.2864L25.4335 25.1652C27.0841 24.3399 29.0776 24.6634 30.3826 25.9683C32.0569 27.6427 32.0569 30.3573 30.3826 32.0317L29.8787 32.5355C29.3161 33.0981 29 33.8612 29 34.6569V39.2033C35.3879 37.1037 40 31.0905 40 24C40 16.9096 35.3879 10.8964 29 8.79677V13.3431C29 14.1388 29.3161 14.9019 29.8787 15.4645L30.3826 15.9683C32.0569 17.6427 32.0569 20.3573 30.3826 22.0317C29.0776 23.3366 27.0841 23.6601 25.4335 22.8348L25.1911 22.7136C24.4413 22.3387 23.5587 22.3387 22.8089 22.7136L22.5665 22.8348C20.9159 23.6601 18.9224 23.3366 17.6174 22.0317C15.9431 20.3573 15.9431 17.6427 17.6174 15.9683L18.1213 15.4645C18.6839 14.9019 19 14.1388 19 13.3431V8.79677Z" fill="black"/>
</svg>

<svg
  xmlns="http://www.w3.org/2000/svg"
  width="24"
  height="24"
  viewBox="0 0 24 24"
  fill="none"
  stroke="currentColor"
  stroke-width="2"
  stroke-linecap="round"
  stroke-linejoin="round"
>
  <path
    fill-rule="evenodd"
    d="M20 4a1 1 0 0 1 1 1v8.343a5 5 0 0 1-1.465 3.536l-.503.504a2.287 2.287 0 0 0 2.64 3.663l.242-.121a4.66 4.66 0 0 1 4.171 0l.243.12a2.287 2.287 0 0 0 2.64-3.662l-.503-.504A5 5 0 0 1 27 13.343V5a1 1 0 1 1 2 0v1.704C36.509 8.87 42 15.794 42 24s-5.491 15.13-13 17.297V43a1 1 0 1 1-2 0v-8.343a5 5 0 0 1 1.465-3.536l.503-.504a2.287 2.287 0 0 0-2.64-3.663l-.242.121a4.66 4.66 0 0 1-4.171 0l-.243-.12a2.287 2.287 0 0 0-2.64 3.662l.503.504A5 5 0 0 1 21 34.657V43a1 1 0 1 1-2 0v-1.703C11.491 39.13 6 32.207 6 24c0-8.206 5.491-15.13 13-17.296V5a1 1 0 0 1 1-1m-1 4.797C12.612 10.897 8 16.91 8 24s4.612 13.104 11 15.203v-4.546a3 3 0 0 0-.879-2.121l-.504-.504a4.288 4.288 0 0 1 4.95-6.867l.242.121c.75.375 1.632.375 2.382 0l.242-.12a4.288 4.288 0 0 1 4.95 6.866l-.504.504a3 3 0 0 0-.879 2.12v4.547c6.388-2.1 11-8.113 11-15.203S35.388 10.896 29 8.797v4.546a3 3 0 0 0 .879 2.121l.504.504a4.288 4.288 0 0 1-4.95 6.867l-.242-.121a2.66 2.66 0 0 0-2.382 0l-.242.12a4.288 4.288 0 0 1-4.95-6.866l.504-.504a3 3 0 0 0 .879-2.12z"
    clip-rule="evenodd"
  />
</svg>
